images_sukapura_svg/cmd/32/splitwindow.svg

<svg height="32" viewBox="0 0 32 32" width="32" xmlns="http://www.w3.org/2000/svg" xmlns:xlink="http://www.w3.org/1999/xlink"><linearGradient id="a" gradientUnits="userSpaceOnUse" x1="15" x2="15" y1="4" y2="8"><stop offset="0" stop-color="#c8c8cb"/><stop offset="1" stop-color="#98989d"/></linearGradient><path d="m5 4v10h22v-10zm0 14v10h22v-10z" fill="#fff"/><path d="m5 3c-.554 0-1 .446-1 1v10h1v-1-1-8h5 1 6 1 9v8 1 1h1v-10c0-.554-.446-1-1-1zm-1 15v10c0 .554.446 1 1 1h22c.554 0 1-.446 1-1v-10h-1v3 1 6h-9-1-6-1-5v-6-1-3z" fill="#929292"/><g fill="#4d82b8"><path d="m5 4h22v4h-22z" fill="url(#a)"/><g fill="#ff6961"><rect height="2" ry=".966102" width="6" x="2" y="15"/><rect height="2" ry=".983051" width="6" x="9" y="15"/><rect height="2" ry=".983051" width="6" x="17" y="15"/><rect height="2" ry=".983051" width="6" x="24" y="15"/></g></g><path d="m5 8h22v1h-22z" fill="#929292"/></svg>

<?xml version="1.0" encoding="UTF-8" standalone="no"?>
<svg
   xmlns:dc="http://purl.org/dc/elements/1.1/"
   xmlns:cc="http://creativecommons.org/ns#"
   xmlns:rdf="http://www.w3.org/1999/02/22-rdf-syntax-ns#"
   xmlns:svg="http://www.w3.org/2000/svg"
   xmlns="http://www.w3.org/2000/svg"
   xmlns:xlink="http://www.w3.org/1999/xlink"
   xmlns:sodipodi="http://sodipodi.sourceforge.net/DTD/sodipodi-0.dtd"
   xmlns:inkscape="http://www.inkscape.org/namespaces/inkscape"
   viewBox="0 0 32 32"
   version="1.1"
   id="svg30"
   sodipodi:docname="splitwindow.svg"
   inkscape:export-filename="/home/rizmut/Documents/Rizmut/Github/libreoffice-style-sukapura/images_sukapura/cmd/lc_splitwindow.png"
   inkscape:export-xdpi="96"
   inkscape:export-ydpi="96"
   inkscape:version="0.92.3 (unknown)"
   width="32"
   height="32">
  <metadata
     id="metadata36">
    <rdf:RDF>
      <cc:Work
         rdf:about="">
        <dc:format>image/svg+xml</dc:format>
        <dc:type
           rdf:resource="http://purl.org/dc/dcmitype/StillImage" />
        <dc:title></dc:title>
      </cc:Work>
    </rdf:RDF>
  </metadata>
  <defs
     id="defs34">
    <linearGradient
       inkscape:collect="always"
       id="linearGradient2929">
      <stop
         style="stop-color:#c8c8cb;stop-opacity:1;"
         offset="0"
         id="stop2925" />
      <stop
         style="stop-color:#98989d;stop-opacity:1"
         offset="1"
         id="stop2927" />
    </linearGradient>
    <linearGradient
       inkscape:collect="always"
       xlink:href="#linearGradient2929"
       id="linearGradient865"
       x1="15"
       y1="4"
       x2="15"
       y2="8"
       gradientUnits="userSpaceOnUse" />
  </defs>
  <sodipodi:namedview
     pagecolor="#ffffff"
     bordercolor="#666666"
     borderopacity="1"
     objecttolerance="10"
     gridtolerance="10"
     guidetolerance="10"
     inkscape:pageopacity="0"
     inkscape:pageshadow="2"
     inkscape:window-width="1366"
     inkscape:window-height="699"
     id="namedview32"
     showgrid="true"
     inkscape:zoom="6.9532165"
     inkscape:cx="7.1258234"
     inkscape:cy="6.9847439"
     inkscape:window-x="0"
     inkscape:window-y="0"
     inkscape:window-maximized="1"
     inkscape:current-layer="svg30">
    <inkscape:grid
       type="xygrid"
       id="grid843" />
  </sodipodi:namedview>
  <path
     inkscape:connector-curvature="0"
     style="fill:#ffffff"
     d="M 5,4 V 14 H 27 V 4 Z M 5,18 V 28 H 27 V 18 Z"
     id="path2" />
  <path
     inkscape:connector-curvature="0"
     style="fill:#929292;fill-opacity:1"
     d="M 5,3 C 4.446,3 4,3.446 4,4 V 14 H 5 V 13 12 4 h 5 1 6 1 9 v 8 1 1 h 1 V 4 C 28,3.446 27.554,3 27,3 Z M 4,18 v 10 c 0,0.554 0.446,1 1,1 h 22 c 0.554,0 1,-0.446 1,-1 V 18 h -1 v 3 1 6 H 18 17 11 10 5 v -6 -1 -3 z"
     id="path4-3" />
  <g
     style="fill:#4d82b8"
     id="g16">
    <path
       inkscape:connector-curvature="0"
       d="M 5,4 H 27 V 8 H 5 Z"
       id="path6"
       sodipodi:nodetypes="ccccc"
       style="stroke:none;fill-opacity:1;fill:url(#linearGradient865)" />
    <rect
       height="2"
       ry="0.966102"
       width="6"
       x="2"
       y="15"
       id="rect8-6"
       style="stroke:none;fill:#ff6961;fill-opacity:1" />
    <rect
       height="2"
       ry="0.983051"
       width="6"
       x="9"
       y="15"
       id="rect10-7"
       style="stroke:none;fill:#ff6961;fill-opacity:1" />
    <rect
       height="2"
       ry="0.983051"
       width="6"
       x="17"
       y="15"
       id="rect12-5"
       style="stroke:none;fill:#ff6961;fill-opacity:1" />
    <rect
       height="2"
       ry="0.983051"
       width="6"
       x="24"
       y="15"
       id="rect14-3"
       style="stroke:none;fill:#ff6961;fill-opacity:1" />
  </g>
  <rect
     style="opacity:1;fill:#929292;fill-opacity:1;stroke:none;stroke-width:1;stroke-linecap:round;stroke-linejoin:round;stroke-miterlimit:4;stroke-dasharray:none;stroke-opacity:0"
     id="rect867"
     width="22"
     height="1"
     x="5"
     y="8" />
</svg>
